icons/evolvere-black-folders-vivid-dark-fallback/places/24/folder-image-people.svg

<?xml version="1.0" encoding="UTF-8" standalone="no"?>
<!-- Created with Inkscape (http://www.inkscape.org/) -->

<svg
   xmlns:dc="http://purl.org/dc/elements/1.1/"
   xmlns:cc="http://creativecommons.org/ns#"
   xmlns:rdf="http://www.w3.org/1999/02/22-rdf-syntax-ns#"
   xmlns:svg="http://www.w3.org/2000/svg"
   xmlns="http://www.w3.org/2000/svg"
   xmlns:sodipodi="http://sodipodi.sourceforge.net/DTD/sodipodi-0.dtd"
   xmlns:inkscape="http://www.inkscape.org/namespaces/inkscape"
   id="svg13094"
   height="24"
   width="24"
   version="1.1"
   inkscape:version="0.48.3.1 r9886"
   sodipodi:docname="folder-image-people.svg">
  <defs
     id="defs2989" />
  <sodipodi:namedview
     pagecolor="#ffffff"
     bordercolor="#666666"
     borderopacity="1"
     objecttolerance="10"
     gridtolerance="10"
     guidetolerance="10"
     inkscape:pageopacity="0"
     inkscape:pageshadow="2"
     inkscape:window-width="1920"
     inkscape:window-height="1033"
     id="namedview2987"
     showgrid="true"
     inkscape:zoom="20.85965"
     inkscape:cx="12.437574"
     inkscape:cy="12.97617"
     inkscape:window-x="-10"
     inkscape:window-y="25"
     inkscape:window-maximized="1"
     inkscape:current-layer="svg13094"
     inkscape:snap-bbox="true"
     inkscape:bbox-paths="true"
     inkscape:bbox-nodes="true"
     inkscape:snap-bbox-edge-midpoints="true"
     inkscape:snap-bbox-midpoints="true"
     inkscape:object-paths="true"
     inkscape:snap-intersection-paths="true"
     inkscape:object-nodes="true"
     inkscape:snap-smooth-nodes="true"
     inkscape:snap-midpoints="true"
     inkscape:snap-object-midpoints="true"
     inkscape:snap-center="true">
    <inkscape:grid
       type="xygrid"
       id="grid3750"
       empspacing="5"
       visible="true"
       enabled="true"
       snapvisiblegridlinesonly="true" />
  </sodipodi:namedview>
  <metadata
     id="metadata13099">
    <rdf:RDF>
      <cc:Work
         rdf:about="">
        <dc:format>image/svg+xml</dc:format>
        <dc:type
           rdf:resource="http://purl.org/dc/dcmitype/StillImage" />
        <dc:title />
      </cc:Work>
    </rdf:RDF>
  </metadata>
  <path
     style="fill:#EDEFF3;fill-opacity:0.758;fill-rule:nonzero"
     d="M 6 4 L 6 6 L 19 6 L 19 17 L 21 17 L 21 4 L 6 4 z M 3 7 L 3 20 L 18 20 L 18 7 L 3 7 z M 5 9 L 16 9 L 16 18 L 5 18 L 5 9 z M 10.5 10 C 9.3954305 10 8.5 10.895431 8.5 12 C 8.5 13.104569 9.3954305 14 10.5 14 C 11.604569 14 12.5 13.104569 12.5 12 C 12.5 10.895431 11.604569 10 10.5 10 z M 10.5 14 C 8.6368122 14 7.1009217 15.275691 6.65625 17 L 14.34375 17 C 13.899078 15.275691 12.363188 14 10.5 14 z "
     id="path2989" />
</svg>

<?xml version="1.0" encoding="UTF-8" standalone="no"?>
<!-- Created with Inkscape (http://www.inkscape.org/) -->

<svg
   xmlns:dc="http://purl.org/dc/elements/1.1/"
   xmlns:cc="http://creativecommons.org/ns#"
   xmlns:rdf="http://www.w3.org/1999/02/22-rdf-syntax-ns#"
   xmlns:svg="http://www.w3.org/2000/svg"
   xmlns="http://www.w3.org/2000/svg"
   xmlns:sodipodi="http://sodipodi.sourceforge.net/DTD/sodipodi-0.dtd"
   xmlns:inkscape="http://www.inkscape.org/namespaces/inkscape"
   id="svg13094"
   height="24"
   width="24"
   version="1.1"
   inkscape:version="0.48.3.1 r9886"
   sodipodi:docname="folder-image-people.svg">
  <defs
     id="defs2989" />
  <sodipodi:namedview
     pagecolor="#ffffff"
     bordercolor="#666666"
     borderopacity="1"
     objecttolerance="10"
     gridtolerance="10"
     guidetolerance="10"
     inkscape:pageopacity="0"
     inkscape:pageshadow="2"
     inkscape:window-width="1920"
     inkscape:window-height="1033"
     id="namedview2987"
     showgrid="true"
     inkscape:zoom="29.5"
     inkscape:cx="1.9651252"
     inkscape:cy="10.628168"
     inkscape:window-x="-10"
     inkscape:window-y="25"
     inkscape:window-maximized="1"
     inkscape:current-layer="svg13094"
     inkscape:snap-bbox="true"
     inkscape:bbox-paths="true"
     inkscape:bbox-nodes="true"
     inkscape:snap-bbox-edge-midpoints="true"
     inkscape:snap-bbox-midpoints="true"
     inkscape:object-paths="true"
     inkscape:snap-intersection-paths="true"
     inkscape:object-nodes="true"
     inkscape:snap-smooth-nodes="true"
     inkscape:snap-midpoints="true"
     inkscape:snap-object-midpoints="true"
     inkscape:snap-center="true">
    <inkscape:grid
       type="xygrid"
       id="grid3750"
       empspacing="5"
       visible="true"
       enabled="true"
       snapvisiblegridlinesonly="true" />
  </sodipodi:namedview>
  <metadata
     id="metadata13099">
    <rdf:RDF>
      <cc:Work
         rdf:about="">
        <dc:format>image/svg+xml</dc:format>
        <dc:type
           rdf:resource="http://purl.org/dc/dcmitype/StillImage" />
        <dc:title />
      </cc:Work>
    </rdf:RDF>
  </metadata>
  <path
     style="color:#000000;fill:#d1d4d6;fill-opacity:0.74329164;fill-rule:nonzero;stroke:none;stroke-width:2;marker:none;visibility:visible;display:inline;overflow:visible;enable-background:accumulate"
     d="M 5 3 L 5 5 L 6 5 L 6 4 L 21 4 L 21 17 L 20 17 L 20 18 L 22 18 L 22 3 L 5 3 z M 2 6 L 2 21 L 19 21 L 19 19.5 L 19 18 L 19 17 L 19 16.65625 L 19 6 L 6 6 L 5 6 L 2 6 z M 3 7 L 18 7 L 18 20 L 3 20 L 3 7 z M 5 9 L 5 18 L 16 18 L 16 9 L 5 9 z M 10.5 11 C 11.328427 11 12 11.671573 12 12.5 C 12 13.328427 11.328427 14 10.5 14 C 9.6715729 14 9 13.328427 9 12.5 C 9 11.671573 9.6715729 11 10.5 11 z M 8 15 L 13 15 L 15 17 L 6 17 L 8 15 z "
     id="rect2987" />
  <path
     id="path2987"
     d="m 6,4 0,2 13,0 0,11 2,0 L 21,4 6,4 z M 3,7 3,20 18,20 18,7 3,7 z m 2,2 11,0 0,9 -11,0 0,-9 z m 5.5,2 C 9.6715729,11 9,11.671573 9,12.5 9,13.328427 9.6715729,14 10.5,14 11.328427,14 12,13.328427 12,12.5 12,11.671573 11.328427,11 10.5,11 z m -2.5,4 -2,2 9,0 -2,-2 -5,0 z"
     style="fill:#434a54;fill-opacity:0.6745098;fill-rule:nonzero"
     inkscape:connector-curvature="0" />
</svg>
